X:148
T:Rush and The Pepper
S:Jim Coon to CoMandoList TOW
R:reel
M:4/4
L:1/8
Q:1/4=240
K:D
"D"DE FA "G"BA FE|"D"DF Ad f2 ef|"G"g2 gf "A"ed cd|ef ed cB A2|!
"D"DE FA "G"BA FE|"D"DF Ad f2 ef|"G"g2 gf "A"ed cd|"D"(d4 d4):|!
|:"D"d4f4|a4f2 ef|"G"ga gf "A"ed cd|"D"ed cB A4|!
"D"d4f4|a4f2 ef|"G"ga gf "A"ed cd|"D"(d4d4):|!
